components/ui-node-icon/src/sql/sql.medium.svg

<svg width="24" height="24" viewBox="0 0 24 24" fill="none" xmlns="http://www.w3.org/2000/svg">
  <path fill-rule="evenodd" clip-rule="evenodd" d="M6 4C3.79086 4 2 5.79086 2 8V15C2 17.2091 3.79086 19 6 19H18C20.2091 19 22 17.2091 22 15V8C22 5.79086 20.2091 4 18 4H6ZM5 10C5 8.89543 5.89543 8 7 8H8C9.10457 8 10 8.89543 10 10C10 10.2761 9.77614 10.5 9.5 10.5C9.22386 10.5 9 10.2761 9 10C9 9.44772 8.55228 9 8 9H7C6.44772 9 6 9.44772 6 10C6 10.5523 6.44772 11 7 11H8C9.10457 11 10 11.8954 10 13C10 14.1046 9.10457 15 8 15H7C5.89543 15 5 14.1046 5 13C5 12.7239 5.22386 12.5 5.5 12.5C5.77614 12.5 6 12.7239 6 13C6 13.5523 6.44772 14 7 14H8C8.55228 14 9 13.5523 9 13C9 12.4477 8.55228 12 8 12H7C5.89543 12 5 11.1046 5 10ZM11 10C11 8.89543 11.8954 8 13 8H14C15.1046 8 16 8.89543 16 10V13C16 13.8437 15.4776 14.5654 14.7386 14.8592L14.9472 15.2764C15.0707 15.5234 14.9706 15.8237 14.7236 15.9472C14.4766 16.0707 14.1763 15.9706 14.0528 15.7236L13.691 15H13C11.8954 15 11 14.1046 11 13V10ZM15 13C15 13.4522 14.6999 13.8343 14.288 13.9579L13.9472 13.2764C13.8237 13.0294 13.5234 12.9293 13.2764 13.0528C13.0294 13.1763 12.9293 13.4766 13.0528 13.7236L13.191 14H13C12.4477 14 12 13.5523 12 13V10C12 9.44772 12.4477 9 13 9H14C14.5523 9 15 9.44772 15 10V13ZM18 8.5C18 8.22386 17.7761 8 17.5 8C17.2239 8 17 8.22386 17 8.5V14.5V15H17.5H20C20.2761 15 20.5 14.7761 20.5 14.5C20.5 14.2239 20.2761 14 20 14H18V8.5Z" fill="var(--tbl--colors--icons--transformation--primary)"/>
</svg>

<svg xmlns="http://www.w3.org/2000/svg" width="24" height="24" fill="none" viewBox="0 0 24 24">
  <path fill="var(--tbl--colors--icons--transformation--primary)" fill-rule="evenodd" d="M6 4a4 4 0 0 0-4 4v7a4 4 0 0 0 4 4h12a4 4 0 0 0 4-4V8a4 4 0 0 0-4-4H6Zm-1 6a2 2 0 0 1 2-2h1a2 2 0 0 1 2 2 .5.5 0 0 1-1 0 1 1 0 0 0-1-1H7a1 1 0 0 0 0 2h1a2 2 0 1 1 0 4H7a2 2 0 0 1-2-2 .5.5 0 0 1 1 0 1 1 0 0 0 1 1h1a1 1 0 1 0 0-2H7a2 2 0 0 1-2-2Zm6 0a2 2 0 0 1 2-2h1a2 2 0 0 1 2 2v3a2 2 0 0 1-1.261 1.86l.208.416a.5.5 0 1 1-.894.448L13.69 15H13a2 2 0 0 1-2-2v-3Zm4 3a1 1 0 0 1-.712.958l-.34-.682a.5.5 0 1 0-.895.448l.138.276H13a1 1 0 0 1-1-1v-3a1 1 0 0 1 1-1h1a1 1 0 0 1 1 1v3Zm3-4.5a.5.5 0 0 0-1 0V15h3a.5.5 0 0 0 0-1h-2V8.5Z" clip-rule="evenodd"/>
</svg>
